FINK
CUT[MEIN MAEDCHEN WARD MIR UNGETREU]
REG[Europa, Mitteleuropa, Deutschland]
KEY[F0832  16 Eb 2/4]
MEL[5_  5_5_3_1_  4__2__  1__0_
    5_  5_.56_7_  +1_7_6_5
    2  5_.56_7_  +1_7_6_5
    +1  6_5_4_3_  2__-7__  1__0_ //] >>
FCT[erzaehlendes Volks - Lied, Ballade]
